localPackages/DesignSystem/Sources/DesignSystem/Resources/Assets.xcassets/IconSet/ic-inbox.imageset/ic-inbox.svg

<svg width="24" height="24" viewBox="0 0 24 24" fill="none" xmlns="http://www.w3.org/2000/svg">
<g id="ic-inbox">
<path id="Icon" fill-rule="evenodd" clip-rule="evenodd" d="M1.53244 12.9689C1.57278 12.6969 1.65043 12.431 1.7637 12.179C1.76779 12.1699 1.77193 12.1608 1.77612 12.1517L5.19562 4.74283C5.68598 3.68038 6.74934 3 7.9195 3H16.0805C17.2507 3 18.314 3.68037 18.8044 4.74283L22.2239 12.1517C22.2281 12.1608 22.2322 12.1699 22.2363 12.179C22.3496 12.431 22.4272 12.6969 22.4676 12.9689C22.4891 13.1142 22.5 13.2613 22.5 13.4089V18C22.5 19.6569 21.1569 21 19.5 21H4.5C2.84315 21 1.5 19.6569 1.5 18V13.4089C1.5 13.2613 1.5109 13.1142 1.53244 12.9689ZM21 13.5V18C21 18.8284 20.3284 19.5 19.5 19.5H4.5C3.67157 19.5 3 18.8284 3 18V13.5H6.87868C7.07759 13.5 7.26836 13.579 7.40901 13.7197L8.78033 15.091C9.20229 15.5129 9.77458 15.75 10.3713 15.75H13.6287C14.2254 15.75 14.7977 15.5129 15.2197 15.091L16.591 13.7197C16.7316 13.579 16.9224 13.5 17.1213 13.5H21ZM20.5018 12H17.1213C16.5246 12 15.9523 12.2371 15.5303 12.659L14.159 14.0303C14.0184 14.171 13.8276 14.25 13.6287 14.25H10.3713C10.1724 14.25 9.98164 14.171 9.84099 14.0303L8.46967 12.659C8.04771 12.2371 7.47542 12 6.87868 12H3.49821L6.55756 5.37141C6.80274 4.84019 7.33442 4.5 7.9195 4.5H16.0805C16.6656 4.5 17.1973 4.84019 17.4424 5.37141L20.5018 12Z" fill="#0F0F0F"/>
</g>
</svg>

<svg xmlns="http://www.w3.org/2000/svg" width="24" height="24" viewBox="0 0 24 24">
  <g class="ic-inbox">
    <path fill-rule="evenodd" d="M1.532 12.969a3 3 0 0 1 .244-.817l3.42-7.41A3 3 0 0 1 7.92 3h8.16a3 3 0 0 1 2.724 1.743l3.42 7.409.012.027a3.002 3.002 0 0 1 .264 1.23V18a3 3 0 0 1-3 3h-15a3 3 0 0 1-3-3v-4.591a3 3 0 0 1 .032-.44ZM21 13.5V18a1.5 1.5 0 0 1-1.5 1.5h-15A1.5 1.5 0 0 1 3 18v-4.5h3.879a.75.75 0 0 1 .53.22l1.371 1.37a2.25 2.25 0 0 0 1.591.659h3.258a2.25 2.25 0 0 0 1.59-.659l1.372-1.371a.75.75 0 0 1 .53-.22H21Zm-.498-1.5h-3.38a2.25 2.25 0 0 0-1.592.659l-1.37 1.371a.75.75 0 0 1-.53.22h-3.26a.75.75 0 0 1-.53-.22l-1.37-1.37A2.25 2.25 0 0 0 6.879 12h-3.38l3.059-6.629A1.5 1.5 0 0 1 7.92 4.5h8.16a1.5 1.5 0 0 1 1.362.871L20.502 12Z" class="Icon"/>
  </g>
</svg>
